X:46
T:Aires de Pontevedra
R:Alborada?
C:gaiteiro de Viasc\'on
B:Xose Luis Foxo- Os segredos da Gaita
O:Galicia (Spain)
Z:Transcrito por Antonio-Nil
M:2/4
L:1/16
K:Amix
EF |: GFGEFDEF| GFGEFDEF| GFGEFDEF| GFGEFDFA| =c4 cBce| d=cBAGFGA| G4{GA}GFGA| d=cBAGFGA| F2{GF}D2FD
d=cBAGFGA| E4FAFD| FAFDGAGC| E2D2D4-|1 D6EF :|2 D2A2d2A2
|: F2GABAGF| E3FGAGF| E2FGAGFE| D2A2d2A2|
F2GABAGF| E3FGAGF| BAFDAGEC |1 D2A2d2A2:|2 D3EF
|: GFGEFDEF| GFGEFDEF| GFGEFDEF| GFGEFDFA| =c4 cBce| d=cBAGFGA| G4{GA}GFGA| d=cBAGFGA| F2{GF}D2FDFA|
d=cBAGFGA| E4FAFD| FAFDGAGC| E2D2D4-|1 D6EF :|2 D2A2d2A2
|: F2GABAGF| E3FGAGF| E2FGAGFE| D2A2d2A2|
F2GABAGF| E3FGAGF| BAFDAGEC |1 D2A2d2A2:|2 D3EF| D2A2d2

